; HEADER_BLOCK_START
; generated by OrcaSlicer 2.0.0 on 2024-05-30 at 17:00:18
; total layer number: 153
; filament_density: 1.24
; filament_diameter: 1.75
; max_z_height: 30.60
; HEADER_BLOCK_END

; THUMBNAIL_BLOCK_START

;
; THUMBNAIL_BLOCK_END

; THUMBNAIL_BLOCK_START

;
; THUMBNAIL_BLOCK_END

; external perimeters extrusion width = 0.42mm
; perimeters extrusion width = 0.45mm
; infill extrusion width = 0.45mm
; solid infill extrusion width = 0.42mm
; top infill extrusion width = 0.42mm
; first layer extrusion width = 0.50mm

; external perimeters extrusion width = 0.42mm
; perimeters extrusion width = 0.45mm
; infill extrusion width = 0.45mm
; solid infill extrusion width = 0.42mm
; top infill extrusion width = 0.42mm
; first layer extrusion width = 0.50mm

; external perimeters extrusion width = 0.42mm
; perimeters extrusion width = 0.45mm
; infill extrusion width = 0.45mm
; solid infill extrusion width = 0.42mm
; top infill extrusion width = 0.42mm
; first layer extrusion width = 0.50mm

; external perimeters extrusion width = 0.42mm
; perimeters extrusion width = 0.45mm
; infill extrusion width = 0.45mm
; solid infill extrusion width = 0.42mm
; top infill extrusion width = 0.42mm
; first layer extrusion width = 0.50mm

; external perimeters extrusion width = 0.42mm
; perimeters extrusion width = 0.45mm
; infill extrusion width = 0.45mm
; solid infill extrusion width = 0.42mm
; top infill extrusion width = 0.42mm
; first layer extrusion width = 0.50mm

; external perimeters extrusion width = 0.42mm
; perimeters extrusion width = 0.45mm
; infill extrusion width = 0.45mm
; solid infill extrusion width = 0.42mm
; top infill extrusion width = 0.42mm
; first layer extrusion width = 0.50mm

; EXECUTABLE_BLOCK_START
EXCLUDE_OBJECT_DEFINE NAME=Prot3.1_GuideNode.STL_id_0_copy_0 CENTER=160.41,154.884 POLYGON=[[154.619,150.877],[154.627,150.791],[154.651,150.708],[154.688,150.63],[154.738,150.56],[154.8,150.499],[154.871,150.45],[154.949,150.414],[155.033,150.392],[155.119,150.384],[165.702,150.384],[165.788,150.392],[165.871,150.414],[165.949,150.45],[166.02,150.499],[166.082,150.56],[166.132,150.63],[166.169,150.708],[166.193,150.791],[166.202,150.877],[166.195,150.963],[166.175,151.046],[163.582,157.364],[163.366,157.759],[163.101,158.123],[162.791,158.45],[162.441,158.735],[162.058,158.972],[161.648,159.158],[161.217,159.29],[160.773,159.366],[160.323,159.383],[159.874,159.343],[159.434,159.246],[159.01,159.092],[158.61,158.886],[158.239,158.63],[157.905,158.328],[157.611,157.986],[157.365,157.609],[157.168,157.204],[154.646,151.046],[154.625,150.963],[154.619,150.877]]
EXCLUDE_OBJECT_DEFINE NAME=Prot3.1_Holder.stl_id_1_copy_0 CENTER=124.81,148.762 POLYGON=[[112.26,133.262],[112.276,132.439],[112.325,131.638],[112.404,130.882],[112.512,130.191],[112.646,129.583],[112.802,129.076],[112.976,128.683],[113.163,128.415],[113.358,128.279],[133.651,128.262],[135.215,128.279],[135.596,128.415],[135.961,128.683],[136.301,129.076],[136.606,129.583],[136.867,130.191],[137.078,130.882],[137.163,131.253],[137.233,131.638],[137.288,132.034],[137.328,132.439],[137.352,132.849],[137.36,133.262],[137.36,169.262],[134.555,169.262],[112.26,169.262],[112.26,133.262]]
EXCLUDE_OBJECT_DEFINE NAME=Prot3.1_Tensioner.STL_id_2_copy_0 CENTER=161.414,192.126 POLYGON=[[144.414,192.126],[144.507,190.349],[144.786,188.592],[145.246,186.873],[145.884,185.212],[146.692,183.626],[147.661,182.134],[148.781,180.751],[150.039,179.493],[151.422,178.373],[152.914,177.404],[154.5,176.596],[156.161,175.958],[157.88,175.498],[159.637,175.219],[161.414,175.126],[163.191,175.219],[164.949,175.498],[166.667,175.958],[168.329,176.596],[169.914,177.404],[171.406,178.373],[172.789,179.493],[174.048,180.751],[175.167,182.134],[176.136,183.626],[176.944,185.212],[177.582,186.873],[178.043,188.592],[178.321,190.349],[178.414,192.126],[178.321,193.903],[178.043,195.661],[177.582,197.379],[176.944,199.041],[176.136,200.626],[175.167,202.118],[174.048,203.501],[172.789,204.76],[171.406,205.879],[169.914,206.848],[168.329,207.656],[166.667,208.294],[164.949,208.755],[163.191,209.033],[161.414,209.126],[159.637,209.033],[157.88,208.755],[156.161,208.294],[154.5,207.656],[152.914,206.848],[151.422,205.879],[150.039,204.76],[148.781,203.501],[147.661,202.118],[146.692,200.626],[145.884,199.041],[145.246,197.379],[144.786,195.661],[144.507,193.903],[144.414,192.126]]
EXCLUDE_OBJECT_DEFINE NAME=Prot3.1R2_EasySpool.STL_id_3_copy_0 CENTER=153.524,99.5191 POLYGON=[[138.524,99.5191],[138.606,97.9511],[138.851,96.4004],[139.258,94.8838],[139.82,93.418],[140.533,92.0191],[141.388,90.7023],[142.376,89.4821],[143.487,88.3719],[144.707,87.3838],[146.024,86.5287],[147.423,85.8159],[148.888,85.2532],[150.405,84.8469],[151.956,84.6012],[153.524,84.5191],[155.092,84.6012],[156.642,84.8469],[158.159,85.2532],[159.625,85.8159],[161.024,86.5287],[162.34,87.3838],[163.561,88.3719],[164.671,89.4821],[165.659,90.7023],[166.514,92.0191],[167.227,93.418],[167.789,94.8838],[168.196,96.4004],[168.441,97.9511],[168.524,99.5191],[168.441,101.087],[168.196,102.638],[167.789,104.154],[167.227,105.62],[166.514,107.019],[165.659,108.336],[164.671,109.556],[163.561,110.666],[162.34,111.654],[161.024,112.509],[159.625,113.222],[158.159,113.785],[156.642,114.191],[155.092,114.437],[153.524,114.519],[151.956,114.437],[150.405,114.191],[148.888,113.785],[147.423,113.222],[146.024,112.509],[144.707,111.654],[143.487,110.666],[142.376,109.556],[141.388,108.336],[140.533,107.019],[139.82,105.62],[139.258,104.154],[138.851,102.638],[138.606,101.087],[138.524,99.5191]]
EXCLUDE_OBJECT_DEFINE NAME=Prot3.1R2_SpoolCover.STL_id_4_copy_0 CENTER=199.752,107.285 POLYGON=[[182.752,107.285],[182.846,105.508],[183.124,103.751],[183.584,102.032],[184.222,100.371],[185.03,98.7854],[185.999,97.2931],[187.119,95.9102],[188.377,94.652],[189.76,93.5321],[191.252,92.563],[192.838,91.7552],[194.499,91.1175],[196.218,90.6569],[197.975,90.3786],[199.752,90.2854],[201.529,90.3786],[203.287,90.6569],[205.006,91.1175],[206.667,91.7552],[208.252,92.563],[209.745,93.5321],[211.128,94.652],[212.386,95.9102],[213.506,97.2931],[214.475,98.7854],[215.283,100.371],[215.92,102.032],[216.381,103.751],[216.659,105.508],[216.752,107.285],[216.659,109.062],[216.381,110.82],[215.92,112.539],[215.283,114.2],[214.752,115.287],[214.748,115.293],[214.737,115.314],[214.72,115.347],[214.694,115.394],[214.663,115.451],[214.624,115.522],[214.624,115.522],[214.58,115.6],[214.475,115.785],[214.474,115.787],[214.347,116.004],[214.202,116.241],[214.045,116.49],[213.879,116.743],[213.709,116.991],[213.542,117.228],[213.541,117.229],[213.505,117.278],[213.379,117.45],[213.228,117.65],[213.091,117.825],[212.974,117.971],[212.924,118.032],[212.879,118.088],[212.841,118.134],[212.809,118.172],[212.784,118.202],[212.766,118.223],[212.756,118.236],[212.752,118.24],[212.386,118.661],[211.128,119.919],[209.745,121.039],[208.252,122.008],[206.667,122.816],[205.006,123.453],[203.287,123.914],[201.529,124.192],[199.752,124.285],[197.975,124.192],[196.218,123.914],[194.499,123.453],[192.838,122.816],[191.252,122.008],[189.76,121.039],[188.377,119.919],[187.119,118.661],[185.999,117.278],[185.03,115.785],[184.222,114.2],[183.584,112.539],[183.124,110.82],[182.846,109.062],[182.752,107.285]]
EXCLUDE_OBJECT_DEFINE NAME=Prot3.1R2_SpoolCover_Taller.STL_id_5_copy_0 CENTER=199.649,154.823 POLYGON=[[182.649,154.823],[182.742,153.046],[183.021,151.288],[183.481,149.569],[184.119,147.908],[184.927,146.323],[185.896,144.83],[187.016,143.447],[188.274,142.189],[189.657,141.069],[191.149,140.1],[192.735,139.292],[194.396,138.655],[196.115,138.194],[197.872,137.916],[199.649,137.823],[201.426,137.916],[203.184,138.194],[204.902,138.655],[206.564,139.292],[208.149,140.1],[209.642,141.069],[211.024,142.189],[212.283,143.447],[213.402,144.83],[214.372,146.323],[215.179,147.908],[215.817,149.569],[216.278,151.288],[216.556,153.046],[216.649,154.823],[216.556,156.6],[216.278,158.357],[215.817,160.076],[215.179,161.737],[214.648,162.824],[214.645,162.83],[214.634,162.851],[214.616,162.884],[214.591,162.931],[214.56,162.988],[214.521,163.059],[214.52,163.06],[214.477,163.137],[214.372,163.323],[214.371,163.324],[214.243,163.541],[214.099,163.778],[213.942,164.027],[213.776,164.28],[213.606,164.528],[213.439,164.765],[213.438,164.766],[213.402,164.815],[213.276,164.987],[213.124,165.187],[212.988,165.362],[212.871,165.509],[212.821,165.57],[212.776,165.625],[212.738,165.671],[212.706,165.71],[212.681,165.739],[212.663,165.761],[212.652,165.773],[212.649,165.778],[212.283,166.198],[211.024,167.456],[209.642,168.576],[208.149,169.545],[206.564,170.353],[204.902,170.991],[203.184,171.451],[201.426,171.73],[199.649,171.823],[197.872,171.73],[196.115,171.451],[194.396,170.991],[192.735,170.353],[191.149,169.545],[189.657,168.576],[188.274,167.456],[187.016,166.198],[185.896,164.815],[184.927,163.323],[184.119,161.737],[183.481,160.076],[183.021,158.357],[182.742,156.6],[182.649,154.823]]
M73 P0 R48
M106 S0
M106 P2 S0
;TYPE:Custom
G28
G0 Z50 F600
M190 S55
G28 Z
G29 ; mesh bed leveling ,comment this code to close it
G0 X0 Y0 Z50 F6000
M109 S210
M83
G0 Z5 F1200
G0 X114.63 Y84.4191 F12000
G0 Z0.2 F600
G1 E3 F1800
G0 Z0.3 F600
G1 X144.63 E6 F600
G90
G21
M83 ; use relative distances for extrusion
; filament start gcode
M106 P3 S255
SET_PRESSURE_ADVANCE ADVANCE=0.031; Override pressure advance value
M106 S0
M106 P2 S0
;LAYER_CHANGE
;Z:0.2
;HEIGHT:0.2
;BEFORE_LAYER_CHANGE
;0.2
G92 E0

M73 P9 R44
G1 E-.8 F1800
;_SET_FAN_SPEED_CHANGING_LAYER
SET_VELOCITY_LIMIT ACCEL=500 ACCEL_TO_DECEL=250
EXCLUDE_OBJECT_START NAME=Prot3.1_Holder.stl_id_1_copy_0
G1 Z.4 F15000
G1 X125.081 Y149.142
G1 Z.4
G1 Z.2
G1 E.8 F1800
;TYPE:Outer wall
;WIDTH:0.299535
G1 F3000
G1 X124.254 Y149.088 E.01733
G1 E-.56 F1800
;WIPE_START
G1 F3000
G1 X125.081 Y149.142 E-.24
;WIPE_END
G1 Z.6 F15000
G1 X123.526 Y150.823 Z.6
G1 Z.2
G1 E.8 F1800
;WIDTH:0.599375
G1 F3000
G1 X123.331 Y150.852 E.00893
;WIDTH:0.558647
G1 X123.136 Y150.881 E.00828
;WIDTH:0.51792
G1 X122.942 Y150.91 E.00763
;WIDTH:0.477192
G1 X122.747 Y150.938 E.00697
;WIDTH:0.436464
G1 X122.552 Y150.967 E.00632
;WIDTH:0.416102
G1 X122.337 Y150.837 E.00763
G1 E-.64949 F1800
;WIPE_START
G1 F3000
G1 X122.552 Y150.967 E-.15051
;WIPE_END
G1 Z.6 F15000
G1 X126.054 Y151.983 Z.6
G1 Z.2
G1 E.8 F1800
;WIDTH:0.193067
G1 F3000
G1 X126.179 Y152.02 E.0016
;WIDTH:0.233876
G1 X126.228 Y152.037 E.0008
;WIDTH:0.231048
G3 X126.332 Y152.274 I-2.793 J1.367 E.00396
G1 E-.64487 F1800
;WIPE_START
G1 F3000
G1 X126.228 Y152.037 E-.15513
;WIPE_END
G1 Z.6 F15000
G1 X125.644 Y154.024 Z.6
G1 Z.2
G1 E.8 F1800
;WIDTH:0.585135
G1 F3000
G3 X125.289 Y154.066 I-.728 J-4.615 E.0158
;WIDTH:0.551432
G3 X124.42 Y154.07 I-.461 J-5.634 E.03605
;WIDTH:0.56632
G1 X124.041 Y154.028 E.01627
G1 X123.241 Y154.332 F15000
;WIDTH:0.306617
G1 F3000
G1 X123.241 Y155.154 E.01766
G1 E-.56 F1800
;WIPE_START
G1 F3000
G1 X123.241 Y154.332 E-.24
;WIPE_END
G1 Z.6 F15000
G1 X124.693 Y155.404 Z.6
G1 Z.2
G1 E.8 F1800
;WIDTH:0.5
G1 F3000
G1 X125.012 Y155.404 E.01188
G1 X124.977 Y155.774 E.01386
G1 X124.728 Y155.774 E.00931
G1 X124.699 Y155.464 E.01161
G1 X124.512 Y156.154 F15000
;WIDTH:0.253126
G1 F3000
G1 X124.715 Y156.135 E.0035
;WIDTH:0.239402
G1 X124.919 Y156.116 E.00327
;WIDTH:0.242326
G3 X125.193 Y156.15 I-.008 J1.174 E.0045
G1 E-.63416 F1800
;WIPE_START
G1 F3000
G1 X124.919 Y156.116 E-.16584
;WIPE_END
G1 Z.6 F15000
G1 X124.428 Y156.819 Z.6
G1 Z.2
G1 E.8 F1800
;WIDTH:0.5
G1 F3000
G3 X124.298 Y156.747 I.909 J-1.783 E.00554
G1 X124.398 Y156.562 E.00782
G1 X124.924 Y156.462 E.01992
G1 X125.183 Y156.538 E.01008
G1 X125.286 Y156.579 E.00412
G1 X125.42 Y156.802 E.00967
G1 X125.045 Y156.919 E.01463
G2 X124.676 Y156.926 I-.167 J.968 E.0138
G3 X124.482 Y156.846 I.661 J-1.889 E.00784
G1 E-.56 F1800
;WIPE_START
G1 F3000
G1 X124.298 Y156.747 E-.05005
G1 X124.398 Y156.562 E-.05038
G1 X124.924 Y156.462 E-.12833
G1 X124.968 Y156.475 E-.01123
;WIPE_END
G1 Z.6 F15000
G1 X124.307 Y158.05 Z.6
G1 Z.2
G1 E.8 F1800
;WIDTH:0.611885
G1 F3000
G1 X124.514 Y158.375 E.01786
;WIDTH:0.602632
G2 X125.488 Y158.35 I.34 J-5.803 E.04449
G1 E-.56 F1800
;WIPE_START
G1 F3000
G1 X125.054 Y158.382 E-.10709
G1 X124.514 Y158.375 E-.13291
;WIPE_END
G1 Z.6 F15000
G1 X125.444 Y159.74 Z.6
G1 Z.2
G1 E.8 F1800
;WIDTH:0.291141
G1 F3000
G3 X125.446 Y160.108 I-.792 J.188 E.00751
G1 X125.32 Y160.252 E.00386
G1 E-.56 F1800
;WIPE_START
G1 F3000
G1 X125.446 Y160.108 E-.08167
G1 X125.463 Y159.996 E-.04844
G1 X125.444 Y159.74 E-.10989
;WIPE_END
G1 Z.6 F15000
G1 X123.287 Y140.327 Z.6
G1 Z.2
G1 E.8 F1800
;WIDTH:0.5
G1 F3000
G1 X123.497 Y140.29 E.00793
G1 X123.662 Y140.436 E.00823
G3 X123.671 Y140.975 I-4.531 J.34 E.02009
G3 X123.274 Y140.751 I.354 J-1.089 E.0171
G1 X123.285 Y140.387 E.01356
G1 E-.56 F1800
;WIPE_START
G1 F3000
G1 X123.497 Y140.29 E-.05584
G1 X123.662 Y140.436 E-.05302
G1 X123.671 Y140.975 E-.12937
G1 X123.664 Y140.972 E-.00177
;WIPE_END
G1 Z.6 F15000
G1 X125.079 Y140.203 Z.6
G1 Z.2
G1 E.8 F1800
G1 F3000
G1 X125.223 Y140.202 E.00536
G1 X125.336 Y140.296 E.00548
G1 X125.406 Y140.585 E.01106
G3 X125.371 Y140.775 I-.979 J-.079 E.0072
G3 X124.883 Y141.02 I-.812 J-1.006 E.02051
G1 X124.883 Y140.456 E.02103
G3 X125.031 Y140.239 I.45 J.147 E.0099
G1 E-.56 F1800
;WIPE_START
G1 F3000
G1 X125.223 Y140.202 E-.04705
G1 X125.336 Y140.296 E-.03533
G1 X125.406 Y140.585 E-.0713
G1 X125.371 Y140.775 E-.04632
G1 X125.265 Y140.863 E-.03311
G1 X125.239 Y140.876 E-.0069
;WIPE_END
G1 Z.6 F15000
G1 X125.082 Y160.047 Z.6
G1 Z.2
G1 E.8 F1800
G1 F3000
G1 X125.094 Y159.837 E.00781
G1 X124.784 Y159.733 E.0122
G1 X123.153 Y159.733 E.06076
G1 X123.069 Y159.072 E.02479
G1 X123.149 Y158.408 E.02492
G1 X123.952 Y158.409 E.02989
G1 X124.006 Y158.206 E.00783
G3 X123.324 Y157.774 I10.604 J-17.52 E.03008
G3 X123.178 Y156.044 I.978 J-.954 E.07008
G2 X123.563 Y155.673 I-4.338 J-4.889 E.01994
G1 X123.675 Y155.599 E.00498
G1 X123.616 Y155.404 E.00759
G1 X123.138 Y155.404 E.01781
G1 X122.76 Y155.491 E.01446
G1 X121.953 Y155.561 E.03016
G3 X121.946 Y153.922 I22.813 J-.92 E.06104
G1 X122.761 Y153.986 E.03047
G1 X123.14 Y154.082 E.01457
G1 X123.768 Y154.082 E.02338
G1 X123.823 Y153.879 E.00783
G3 X123.107 Y153.348 I1.254 J-2.439 E.03334
G3 X122.927 Y152.659 I1.592 J-.783 E.0267
G1 X123.018 Y152.568 E.00479
G3 X123.075 Y152.226 I1.261 J.031 E.01297
G1 X122.835 Y152.226 E.00893
G1 X121.99 Y152.361 E.03188
G1 X121.99 Y151.537 E.03069
G1 X122.111 Y150.996 E.02067
G1 X121.984 Y150.434 E.02145
G1 X121.928 Y149.663 E.0288
G3 X123.537 Y149.353 I2.059 J6.369 E.06118
G1 X124.003 Y149.221 E.01802
G1 X124.004 Y149.015 E.00767
G1 X123.535 Y148.875 E.01825
G3 X121.931 Y148.541 I.497 J-6.402 E.06116
G1 X121.985 Y147.847 E.02593
G1 X122.12 Y147.348 E.01927
G3 X121.932 Y145.866 I4.888 J-1.373 E.05587
G3 X122.001 Y144.789 I4.615 J-.246 E.04027
G3 X123.566 Y143.575 I1.525 J.35 E.07989
G3 X124.801 Y144.096 I.07 J1.559 E.05161
G1 X125.916 Y143.699 E.04405
G1 X126.733 Y143.408 E.03231
G1 X126.728 Y145.112 E.06345
G3 X125.69 Y145.456 I-3.26 J-8.1 E.04076
G3 X125.196 Y145.697 I-2.433 J-4.366 E.02048
G1 X125.197 Y145.908 E.00788
G1 X125.568 Y145.972 E.01402
G3 X126.715 Y145.875 I1.131 J6.55 E.04292
G3 X126.732 Y147.555 I-53.182 J1.388 E.06258
G3 X124.314 Y147.404 I-.377 J-13.391 E.09036
G1 X123.551 Y147.404 E.02841
G1 X123.515 Y147.636 E.00876
G1 X124.17 Y147.843 E.02558
G3 X126.732 Y148.497 I-2.343 J14.535 E.09859
G1 X126.731 Y149.929 E.05334
G3 X124.61 Y150.426 I-3.911 J-11.899 E.08125
G2 X123.756 Y150.67 I3.45 J13.732 E.03307
G1 X123.791 Y150.904 E.00882
G2 X125.309 Y150.811 I.191 J-9.348 E.0567
G1 X125.83 Y150.778 E.01943
G1 X126.732 Y150.82 E.03364
G1 X126.582 Y151.568 E.02843
G1 X126.582 Y152.335 E.02856
G3 X126.621 Y152.513 I-.565 J.218 E.00682
G1 X126.737 Y152.612 E.00567
G3 X126.581 Y153.322 I-3.765 J-.454 E.02713
G3 X125.864 Y153.883 I-1.977 J-1.788 E.03407
G1 X125.921 Y154.082 E.0077
G1 X126.552 Y154.082 E.02351
G1 X126.635 Y154.743 E.02481
G1 X126.552 Y155.404 E.02481
G1 X126.061 Y155.404 E.0183
