; HEADER_BLOCK_START
; generated by OrcaSlicer 2.0.0 on 2024-05-30 at 17:21:43
; total layer number: 153
; filament_density: 1.24
; filament_diameter: 1.75
; max_z_height: 30.60
; HEADER_BLOCK_END

; THUMBNAIL_BLOCK_START

;
; THUMBNAIL_BLOCK_END

; THUMBNAIL_BLOCK_START

;
; THUMBNAIL_BLOCK_END

; external perimeters extrusion width = 0.42mm
; perimeters extrusion width = 0.45mm
; infill extrusion width = 0.45mm
; solid infill extrusion width = 0.42mm
; top infill extrusion width = 0.42mm
; first layer extrusion width = 0.50mm

; external perimeters extrusion width = 0.42mm
; perimeters extrusion width = 0.45mm
; infill extrusion width = 0.45mm
; solid infill extrusion width = 0.42mm
; top infill extrusion width = 0.42mm
; first layer extrusion width = 0.50mm

; external perimeters extrusion width = 0.42mm
; perimeters extrusion width = 0.45mm
; infill extrusion width = 0.45mm
; solid infill extrusion width = 0.42mm
; top infill extrusion width = 0.42mm
; first layer extrusion width = 0.50mm

; external perimeters extrusion width = 0.42mm
; perimeters extrusion width = 0.45mm
; infill extrusion width = 0.45mm
; solid infill extrusion width = 0.42mm
; top infill extrusion width = 0.42mm
; first layer extrusion width = 0.50mm

; external perimeters extrusion width = 0.42mm
; perimeters extrusion width = 0.45mm
; infill extrusion width = 0.45mm
; solid infill extrusion width = 0.42mm
; top infill extrusion width = 0.42mm
; first layer extrusion width = 0.50mm

; EXECUTABLE_BLOCK_START
EXCLUDE_OBJECT_DEFINE NAME=Prot3.1_Holder.stl_id_0_copy_0 CENTER=153.077,145.977 POLYGON=[[140.527,130.477],[140.543,129.654],[140.592,128.853],[140.671,128.097],[140.779,127.405],[140.913,126.798],[141.069,126.291],[141.243,125.898],[141.43,125.63],[141.625,125.494],[161.918,125.477],[163.482,125.494],[163.863,125.63],[164.228,125.898],[164.568,126.291],[164.873,126.798],[165.134,127.405],[165.345,128.097],[165.43,128.468],[165.5,128.853],[165.555,129.249],[165.595,129.654],[165.619,130.064],[165.627,130.477],[165.627,166.477],[162.822,166.477],[140.527,166.477],[140.527,130.477]]
EXCLUDE_OBJECT_DEFINE NAME=Prot3.1_Tensioner.STL_id_1_copy_0 CENTER=161.414,192.126 POLYGON=[[144.414,192.126],[144.507,190.349],[144.786,188.592],[145.246,186.873],[145.884,185.212],[146.692,183.626],[147.661,182.134],[148.781,180.751],[150.039,179.493],[151.422,178.373],[152.914,177.404],[154.5,176.596],[156.161,175.958],[157.88,175.498],[159.637,175.219],[161.414,175.126],[163.191,175.219],[164.949,175.498],[166.667,175.958],[168.329,176.596],[169.914,177.404],[171.406,178.373],[172.789,179.493],[174.048,180.751],[175.167,182.134],[176.136,183.626],[176.944,185.212],[177.582,186.873],[178.043,188.592],[178.321,190.349],[178.414,192.126],[178.321,193.903],[178.043,195.661],[177.582,197.379],[176.944,199.041],[176.136,200.626],[175.167,202.118],[174.048,203.501],[172.789,204.76],[171.406,205.879],[169.914,206.848],[168.329,207.656],[166.667,208.294],[164.949,208.755],[163.191,209.033],[161.414,209.126],[159.637,209.033],[157.88,208.755],[156.161,208.294],[154.5,207.656],[152.914,206.848],[151.422,205.879],[150.039,204.76],[148.781,203.501],[147.661,202.118],[146.692,200.626],[145.884,199.041],[145.246,197.379],[144.786,195.661],[144.507,193.903],[144.414,192.126]]
EXCLUDE_OBJECT_DEFINE NAME=Prot3.1R2_EasySpool.STL_id_2_copy_0 CENTER=153.524,99.5191 POLYGON=[[138.524,99.5191],[138.606,97.9511],[138.851,96.4004],[139.258,94.8838],[139.82,93.418],[140.533,92.0191],[141.388,90.7023],[142.376,89.4821],[143.487,88.3719],[144.707,87.3838],[146.024,86.5287],[147.423,85.8159],[148.888,85.2532],[150.405,84.8469],[151.956,84.6012],[153.524,84.5191],[155.092,84.6012],[156.642,84.8469],[158.159,85.2532],[159.625,85.8159],[161.024,86.5287],[162.34,87.3838],[163.561,88.3719],[164.671,89.4821],[165.659,90.7023],[166.514,92.0191],[167.227,93.418],[167.789,94.8838],[168.196,96.4004],[168.441,97.9511],[168.524,99.5191],[168.441,101.087],[168.196,102.638],[167.789,104.154],[167.227,105.62],[166.514,107.019],[165.659,108.336],[164.671,109.556],[163.561,110.666],[162.34,111.654],[161.024,112.509],[159.625,113.222],[158.159,113.785],[156.642,114.191],[155.092,114.437],[153.524,114.519],[151.956,114.437],[150.405,114.191],[148.888,113.785],[147.423,113.222],[146.024,112.509],[144.707,111.654],[143.487,110.666],[142.376,109.556],[141.388,108.336],[140.533,107.019],[139.82,105.62],[139.258,104.154],[138.851,102.638],[138.606,101.087],[138.524,99.5191]]
EXCLUDE_OBJECT_DEFINE NAME=Prot3.1R2_SpoolCover.STL_id_3_copy_0 CENTER=199.752,107.285 POLYGON=[[182.752,107.285],[182.846,105.508],[183.124,103.751],[183.584,102.032],[184.222,100.371],[185.03,98.7854],[185.999,97.2931],[187.119,95.9102],[188.377,94.652],[189.76,93.5321],[191.252,92.563],[192.838,91.7552],[194.499,91.1175],[196.218,90.6569],[197.975,90.3786],[199.752,90.2854],[201.529,90.3786],[203.287,90.6569],[205.006,91.1175],[206.667,91.7552],[208.252,92.563],[209.745,93.5321],[211.128,94.652],[212.386,95.9102],[213.506,97.2931],[214.475,98.7854],[215.283,100.371],[215.92,102.032],[216.381,103.751],[216.659,105.508],[216.752,107.285],[216.659,109.062],[216.381,110.82],[215.92,112.539],[215.283,114.2],[214.752,115.287],[214.748,115.293],[214.737,115.314],[214.72,115.347],[214.694,115.394],[214.663,115.451],[214.624,115.522],[214.624,115.522],[214.58,115.6],[214.475,115.785],[214.474,115.787],[214.347,116.004],[214.202,116.241],[214.045,116.49],[213.879,116.743],[213.709,116.991],[213.542,117.228],[213.541,117.229],[213.505,117.278],[213.379,117.45],[213.228,117.65],[213.091,117.825],[212.974,117.971],[212.924,118.032],[212.879,118.088],[212.841,118.134],[212.809,118.172],[212.784,118.202],[212.766,118.223],[212.756,118.236],[212.752,118.24],[212.386,118.661],[211.128,119.919],[209.745,121.039],[208.252,122.008],[206.667,122.816],[205.006,123.453],[203.287,123.914],[201.529,124.192],[199.752,124.285],[197.975,124.192],[196.218,123.914],[194.499,123.453],[192.838,122.816],[191.252,122.008],[189.76,121.039],[188.377,119.919],[187.119,118.661],[185.999,117.278],[185.03,115.785],[184.222,114.2],[183.584,112.539],[183.124,110.82],[182.846,109.062],[182.752,107.285]]
EXCLUDE_OBJECT_DEFINE NAME=Prot3.1R2_SpoolCover_Taller.STL_id_4_copy_0 CENTER=199.649,154.823 POLYGON=[[182.649,154.823],[182.742,153.046],[183.021,151.288],[183.481,149.569],[184.119,147.908],[184.927,146.323],[185.896,144.83],[187.016,143.447],[188.274,142.189],[189.657,141.069],[191.149,140.1],[192.735,139.292],[194.396,138.655],[196.115,138.194],[197.872,137.916],[199.649,137.823],[201.426,137.916],[203.184,138.194],[204.902,138.655],[206.564,139.292],[208.149,140.1],[209.642,141.069],[211.024,142.189],[212.283,143.447],[213.402,144.83],[214.372,146.323],[215.179,147.908],[215.817,149.569],[216.278,151.288],[216.556,153.046],[216.649,154.823],[216.556,156.6],[216.278,158.357],[215.817,160.076],[215.179,161.737],[214.648,162.824],[214.645,162.83],[214.634,162.851],[214.616,162.884],[214.591,162.931],[214.56,162.988],[214.521,163.059],[214.52,163.06],[214.477,163.137],[214.372,163.323],[214.371,163.324],[214.243,163.541],[214.099,163.778],[213.942,164.027],[213.776,164.28],[213.606,164.528],[213.439,164.765],[213.438,164.766],[213.402,164.815],[213.276,164.987],[213.124,165.187],[212.988,165.362],[212.871,165.509],[212.821,165.57],[212.776,165.625],[212.738,165.671],[212.706,165.71],[212.681,165.739],[212.663,165.761],[212.652,165.773],[212.649,165.778],[212.283,166.198],[211.024,167.456],[209.642,168.576],[208.149,169.545],[206.564,170.353],[204.902,170.991],[203.184,171.451],[201.426,171.73],[199.649,171.823],[197.872,171.73],[196.115,171.451],[194.396,170.991],[192.735,170.353],[191.149,169.545],[189.657,168.576],[188.274,167.456],[187.016,166.198],[185.896,164.815],[184.927,163.323],[184.119,161.737],[183.481,160.076],[183.021,158.357],[182.742,156.6],[182.649,154.823]]
M73 P0 R47
M106 S0
M106 P2 S0
;TYPE:Custom
G28
G0 Z50 F600
M190 S55
G28 Z
G29 ; mesh bed leveling ,comment this code to close it
G0 X0 Y0 Z50 F6000
M109 S210
M83
G0 Z5 F1200
G0 X140.424 Y84.4191 F12000
G0 Z0.2 F600
G1 E3 F1800
G0 Z0.3 F600
G1 X170.424 E6 F600
G90
G21
M83 ; use relative distances for extrusion
; filament start gcode
M106 P3 S255
SET_PRESSURE_ADVANCE ADVANCE=0.031; Override pressure advance value
M106 S0
M106 P2 S0
;LAYER_CHANGE
;Z:0.2
;HEIGHT:0.2
;BEFORE_LAYER_CHANGE
;0.2
G92 E0

M73 P9 R43
G1 E-.8 F1800
;_SET_FAN_SPEED_CHANGING_LAYER
SET_VELOCITY_LIMIT ACCEL=500 ACCEL_TO_DECEL=250
EXCLUDE_OBJECT_START NAME=Prot3.1R2_SpoolCover_Taller.STL_id_4_copy_0
G1 Z.4 F15000
G1 X210.878 Y162.309
G1 Z.4
G1 Z.2
G1 E.8 F1800
;TYPE:Outer wall
;WIDTH:0.5
G1 F3000
G1 X210.823 Y162.399 E.00392
M73 P9 R42
G1 X209.939 Y163.563 E.05445
G1 X208.934 Y164.624 E.05445
G1 X207.819 Y165.57 E.05445
G1 X206.609 Y166.391 E.05445
G1 X205.318 Y167.075 E.05445
G1 X203.96 Y167.617 E.05445
G1 X202.551 Y168.008 E.05445
G1 X201.109 Y168.244 E.05445
G1 X199.649 Y168.323 E.05445
G1 X198.189 Y168.244 E.05445
G1 X196.747 Y168.008 E.05445
G1 X195.338 Y167.617 E.05445
G1 X193.98 Y167.075 E.05445
G1 X192.689 Y166.391 E.05445
G1 X191.545 Y165.615 E.05149
G1 X190.365 Y164.624 E.05739
G1 X189.36 Y163.563 E.05445
G1 X188.475 Y162.399 E.05445
G1 X187.721 Y161.146 E.05445
G1 X187.107 Y159.82 E.05445
G1 X186.641 Y158.434 E.05445
G1 X186.326 Y157.007 E.05445
G1 X186.168 Y155.554 E.05445
G1 X186.168 Y154.092 E.05445
G1 X186.326 Y152.639 E.05445
G1 X186.641 Y151.211 E.05445
G1 X187.107 Y149.826 E.05445
G1 X187.721 Y148.499 E.05445
G1 X188.475 Y147.246 E.05445
G1 X189.36 Y146.083 E.05445
G1 X190.365 Y145.021 E.05445
G1 X191.479 Y144.075 E.05445
G1 X192.689 Y143.255 E.05445
G1 X193.98 Y142.57 E.05445
G1 X195.338 Y142.029 E.05445
G1 X196.747 Y141.638 E.05445
G1 X198.189 Y141.401 E.05445
G1 X199.57 Y141.326 E.05149
G1 X201.109 Y141.401 E.05739
G1 X202.551 Y141.638 E.05445
G1 X203.96 Y142.029 E.05445
G1 X205.318 Y142.57 E.05445
G1 X206.609 Y143.255 E.05445
G1 X207.819 Y144.075 E.05445
G1 X208.934 Y145.021 E.05445
G1 X209.939 Y146.083 E.05445
G1 X210.823 Y147.246 E.05445
G1 X211.577 Y148.499 E.05445
G1 X212.191 Y149.826 E.05445
G1 X212.658 Y151.211 E.05445
G1 X212.972 Y152.639 E.05445
G1 X213.13 Y154.092 E.05445
G1 X213.13 Y155.554 E.05445
M73 P10 R42
G1 X212.972 Y157.007 E.05445
G1 X212.658 Y158.434 E.05445
G1 X212.191 Y159.82 E.05445
G1 X211.577 Y161.146 E.05445
G1 X210.909 Y162.258 E.0483
G1 X211.063 Y163.124 F15000
G1 F3000
G1 X210.138 Y164.267 E.05478
G1 X209.093 Y165.311 E.05502
G1 X207.982 Y166.211 E.05324
G1 X206.706 Y167.045 E.0568
G1 X205.39 Y167.716 E.05502
G1 X204.011 Y168.246 E.05502
G1 X202.584 Y168.628 E.05502
G1 X201.124 Y168.859 E.05502
G1 X199.649 Y168.936 E.05502
G1 X198.174 Y168.859 E.05502
G1 X196.715 Y168.628 E.05502
G1 X195.288 Y168.246 E.05502
G1 X193.909 Y167.716 E.05502
G1 X192.592 Y167.045 E.05502
G1 X191.353 Y166.241 E.05502
G1 X190.205 Y165.311 E.05502
G1 X189.161 Y164.267 E.05502
G1 X188.261 Y163.156 E.05324
G1 X187.426 Y161.879 E.0568
G1 X186.756 Y160.563 E.05502
G1 X186.226 Y159.184 E.05502
G1 X185.844 Y157.757 E.05502
G1 X185.613 Y156.298 E.05502
G1 X185.535 Y154.823 E.05502
G1 X185.613 Y153.347 E.05502
G1 X185.844 Y151.888 E.05502
G1 X186.226 Y150.461 E.05502
G1 X186.756 Y149.082 E.05502
G1 X187.426 Y147.766 E.05502
G1 X188.231 Y146.527 E.05502
G1 X189.161 Y145.379 E.05502
G1 X190.205 Y144.334 E.05502
G1 X191.353 Y143.404 E.05502
G1 X192.592 Y142.6 E.05502
G1 X193.909 Y141.929 E.05502
G1 X195.288 Y141.4 E.05502
G1 X196.715 Y141.017 E.05502
G1 X198.174 Y140.786 E.05502
G1 X199.649 Y140.709 E.05502
G1 X200.594 Y140.759 E.03523
G1 X201.124 Y140.786 E.01979
G1 X202.584 Y141.017 E.05502
G1 X204.011 Y141.4 E.05502
G1 X205.39 Y141.929 E.05502
G1 X206.706 Y142.6 E.05502
G1 X207.945 Y143.404 E.05502
G1 X209.093 Y144.334 E.05502
G1 X210.138 Y145.379 E.05502
G1 X211.067 Y146.527 E.05502
G1 X211.872 Y147.766 E.05502
G1 X212.543 Y149.082 E.05502
G1 X213.072 Y150.461 E.05502
G1 X213.454 Y151.888 E.05502
G1 X213.686 Y153.347 E.05502
G1 X213.763 Y154.823 E.05502
G1 X213.686 Y156.298 E.05502
G1 X213.454 Y157.757 E.05502
G1 X213.072 Y159.184 E.05502
G1 X212.543 Y160.563 E.05502
G1 X211.872 Y161.879 E.05502
G1 X211.096 Y163.074 E.05303
G1 X210.84 Y162.894 F15000
;TYPE:Gap infill
;WIDTH:0.19902
G1 F3000
G1 X211.068 Y162.57 E.00504
G2 X207.761 Y143.658 I-11.427 J-7.747 E.27005
G2 X206.761 Y142.995 I-12.769 J18.163 E.01526
G1 X206.55 Y142.87 E.00312
G2 X205.441 Y142.294 I-11.175 J20.152 E.0159
G1 X205.263 Y142.213 E.00249
G2 X204.053 Y141.74 I-9.329 J22.08 E.01653
G1 X203.915 Y141.695 E.00185
G2 X202.613 Y141.34 I-7.196 J23.831 E.01717
G1 X202.519 Y141.32 E.00122
G2 X201.138 Y141.097 I-4.793 J25.372 E.0178
G2 X199.553 Y141.021 I-2.664 J38.658 E.02018
G1 X198.161 Y141.097 E.01774
G2 X196.678 Y141.342 I104.807 J640.318 E.01912
G1 X195.245 Y141.74 E.01891
G2 X193.85 Y142.298 I246.726 J619.893 E.01911
G1 X192.537 Y142.995 E.01891
G2 X190.415 Y144.567 I8.828 J14.127 E.03363
G1 X190.162 Y144.801 E.00439
G2 X185.872 Y154.072 I9.604 J10.072 E.13305
G2 X192.53 Y166.647 I13.838 J.723 E.19007
G1 X192.748 Y166.775 E.00322
G2 X193.857 Y167.351 I11.22 J-20.239 E.0159
G1 X194.035 Y167.432 E.00249
G2 X195.245 Y167.905 I9.329 J-22.08 E.01653
G1 X195.384 Y167.951 E.00185
G2 X196.686 Y168.305 I7.196 J-23.83 E.01717
G1 X196.779 Y168.326 E.00122
G2 X198.161 Y168.548 I4.791 J-25.356 E.0178
G1 X199.649 Y168.63 E.01896
G1 X201.138 Y168.548 E.01896
G2 X202.621 Y168.304 I-104.708 J-639.717 E.01912
G1 X204.053 Y167.905 E.01891
G2 X205.448 Y167.348 I-246.455 J-619.215 E.01911
G1 X206.761 Y166.651 E.01891
G2 X208.883 Y165.078 I-8.819 J-14.115 E.03363
G1 X209.137 Y164.844 E.00439
G2 X210.806 Y162.943 I-9.495 J-10.021 E.03223
G1 E-.56 F1800
;WIPE_START
G1 F3000
G1 X211.068 Y162.57 E-.10946
G1 X211.357 Y162.108 E-.13054
;WIPE_END
EXCLUDE_OBJECT_END NAME=Prot3.1R2_SpoolCover_Taller.STL_id_4_copy_0
EXCLUDE_OBJECT_START NAME=Prot3.1R2_SpoolCover.STL_id_3_copy_0
G1 Z.6 F15000
G1 X211.08 Y114.645 Z.6
G1 Z.2
G1 E.8 F1800
;TYPE:Outer wall
;WIDTH:0.5
G1 F3000
G1 X210.943 Y114.873 E.00991
G1 X210.057 Y116.038 E.05453
G1 X209.113 Y117.035 E.05114
G1 X207.935 Y118.049 E.0579
G1 X206.723 Y118.871 E.05453
G1 X205.43 Y119.556 E.05453
G1 X204.07 Y120.098 E.05453
G1 X202.659 Y120.49 E.05453
G1 X201.214 Y120.727 E.05453
G1 X199.752 Y120.806 E.05453
G1 X198.291 Y120.727 E.05453
G1 X196.846 Y120.49 E.05453
G1 X195.435 Y120.098 E.05453
G1 X194.578 Y119.757 E.03436
G1 X194.075 Y119.556 E.02017
G1 X192.782 Y118.871 E.05453
G1 X191.57 Y118.049 E.05453
G1 X190.454 Y117.101 E.05453
G1 X189.448 Y116.038 E.05453
G1 X188.562 Y114.873 E.05453
G1 X187.807 Y113.619 E.05453
G1 X187.192 Y112.29 E.05453
G1 X186.725 Y110.903 E.05453
G1 X186.41 Y109.473 E.05453
G1 X186.252 Y108.017 E.05453
G1 X186.252 Y106.553 E.05453
G1 X186.41 Y105.098 E.05453
G1 X186.725 Y103.668 E.05453
G1 X187.192 Y102.281 E.05453
G1 X187.807 Y100.952 E.05453
G1 X188.562 Y99.698 E.05453
G1 X189.448 Y98.532 E.05453
G1 X190.454 Y97.47 E.05453
G1 X191.57 Y96.522 E.05453
G1 X192.782 Y95.7 E.05453
G1 X194.075 Y95.014 E.05453
G1 X195.435 Y94.473 E.05453
G1 X196.846 Y94.081 E.05453
G1 X198.291 Y93.844 E.05453
G1 X199.662 Y93.77 E.05114
G1 X201.214 Y93.844 E.0579
G1 X202.659 Y94.081 E.05453
G1 X204.07 Y94.473 E.05453
G1 X205.43 Y95.014 E.05453
G1 X206.723 Y95.7 E.05453
G1 X207.935 Y96.522 E.05453
G1 X209.05 Y97.47 E.05453
G1 X210.057 Y98.532 E.05453
G1 X210.943 Y99.698 E.05453
G1 X211.698 Y100.952 E.05453
G1 X212.313 Y102.281 E.05453
G1 X212.78 Y103.668 E.05453
G1 X213.095 Y105.098 E.05453
G1 X213.253 Y106.553 E.05453
G1 X213.253 Y108.017 E.05453
G1 X213.095 Y109.473 E.05453
G1 X212.78 Y110.903 E.05453
G1 X212.313 Y112.29 E.05453
G1 X211.698 Y113.619 E.05453
G1 X211.111 Y114.594 E.04239
G1 E-.56 F1800
;WIPE_START
G1 F3000
G1 X210.943 Y114.873 E-.07823
G1 X210.535 Y115.41 E-.16177
;WIPE_END
G1 Z.6 F15000
G1 X212.845 Y112.975 Z.6
G1 Z.2
G1 E.8 F1800
G1 F3000
G1 X212.799 Y113.094 E.00476
G1 X212.121 Y114.426 E.05568
G1 X211.306 Y115.68 E.05568
G1 X210.366 Y116.842 E.05568
G1 X209.309 Y117.899 E.05568
